fs/video_person_off_20_filled.svg

<svg viewBox="0 0 20 20" fill="none" xmlns="http://www.w3.org/2000/svg" height="1em" width="1em">
  <path d="M2.85355 2.14645C2.65829 1.95118 2.34171 1.95118 2.14645 2.14645C1.95118 2.34171 1.95118 2.65829 2.14645 2.85355L3.3054 4.01251C2.56891 4.10791 2 4.73752 2 5.5V14.5C2 15.3284 2.67157 16 3.5 16H15.2929L17.1464 17.8536C17.3417 18.0488 17.6583 18.0488 17.8536 17.8536C18.0488 17.6583 18.0488 17.3417 17.8536 17.1464L2.85355 2.14645ZM11.2929 12H7.5C6.67157 12 6 12.6716 6 13.5V15H3.5C3.22386 15 3 14.7761 3 14.5V5.5C3 5.22386 3.22386 5 3.5 5H4.29289L7.51524 8.22235C7.50517 8.31351 7.5 8.40615 7.5 8.5C7.5 9.88071 8.61929 11 10 11C10.0938 11 10.1865 10.9948 10.2776 10.9848L11.2929 12ZM8.57026 6.44892L12.0511 9.92974C12.334 9.52458 12.5 9.03167 12.5 8.5C12.5 7.11929 11.3807 6 10 6C9.46833 6 8.97542 6.16597 8.57026 6.44892ZM17 14.5C17 14.6071 16.9663 14.7063 16.909 14.7877L17.6196 15.4983C17.8562 15.2331 18 14.8833 18 14.5V5.5C18 4.67157 17.3284 4 16.5 4H6.12134L7.12134 5H16.5C16.7761 5 17 5.22386 17 5.5V14.5Z" fill="#212121"/>
</svg>

<svg viewBox="0 0 20 20" fill="none" xmlns="http://www.w3.org/2000/svg" height="1em" width="1em">
  <path d="M2.854 2.146a.5.5 0 1 0-.708.708l1.16 1.159A1.5 1.5 0 0 0 2 5.5v9A1.5 1.5 0 0 0 3.5 16h11.793l1.853 1.854a.5.5 0 0 0 .708-.708l-15-15ZM11.293 12H7.5A1.5 1.5 0 0 0 6 13.5V15H3.5a.5.5 0 0 1-.5-.5v-9a.5.5 0 0 1 .5-.5h.793l3.222 3.222a2.5 2.5 0 0 0 2.762 2.762L11.294 12ZM8.57 6.449l3.481 3.48a2.5 2.5 0 0 0-3.48-3.48ZM17 14.5a.498.498 0 0 1-.091.288l.71.71c.237-.265.381-.615.381-.998v-9A1.5 1.5 0 0 0 16.5 4H6.121l1 1H16.5a.5.5 0 0 1 .5.5v9Z" fill="#212121"/>
</svg>
